X:1
T:Howl at the Moon Harmony 1
C:copyright 1998 Jim Thompson
N:To be played with Kaubells tune ``Howl at the Moon''
R:Jig
E:18
M:6/8
K:E
|:g3 a=f=c|g3 a=f=c|g3 gfe|f3 bc'b|
g3 a=f=c|g3 a=f=c|g3 a=f=c|d3 efg:|
|:gab b3|agf f3|gab b3|agf z3|
gab b3|agf fdf|=f=ga fga|fgf e3:|
